X:1
T:Title
%%score { ( 1 3 ) | 2 }
L:1/8
Q:1/4=100
M:4/4
K:Ab
V:1 treble nm="Grand Piano"
V:3 treble 
V:2 bass 
V:1
 [CE]>[CE] [CE]>[DF] [CEA]>[CEA] [EA]>[EGB] | [EAc]>[EAc] [EAc]>[DEB] [CEA]2 z2 | %2
w: T.~N.~Pennell * * * * * * *||
 [FA]3 [FB] [FA]2 [DF]2 | [CE]6 z2 | [CE]>[CE] [CE]>[DF] [CEA]>[CEA] [EA]>[EB] | %5
w: |||
 [EAc]>[EAc] [EAc]>[DEB] [CEA]2 z2 | [EAc]3 [EAc] [CA]2 [DEB]2 | [CEA]6 z2 | c3 c A2 c2 | e6 z2 | %10
w: |||||
 c3 c A2 A2 | B6 z2 | [A,CE]>[A,CE] [A,CE]>[A,DF] [CEA]>[CEA] [EA]>[EB] | %13
w: |||
 [EAc]>[EAc] [EAc]>[DEB] [CEA]2 z2 | [EAc]3 [EAc] [CA]2 [DEB]2 |[M:8/4] [CEA]8 z8 |] %16
w: |||
V:2
 [A,,A,]>[A,,A,] [A,,A,]>[A,,A,] A,,>A,, C,>E, | A,>A, E,>E, A,,2 z2 | %2
 [D,D]3 [D,D] [D,D]2 [D,A,]2 | [A,,A,]6 z2 | [A,,A,]>[A,,A,] [A,,A,]>[A,,A,] A,,>A,, C,>E, | %5
 A,>A, E,>E, A,,2 z2 | A,3 A, E,2 E,2 | A,,6 z2 | [A,EA]3 [A,EA] [A,CE]2 [A,EA]2 | %9
 [A,CA]2 [CE]>[B,D] [A,C]2 z2 | [A,EA]3 [A,EA][K:bass] [A,CE]2 [F,=DF]2 | E,2 B,,>B,, E,2 z2 | %12
 A,,>A,, A,,>A,, A,,>A,, C,>E, | A,>A, E,>E, A,,2 z2 | A,3 A, E,2 E,2 |[M:8/4] A,,8 z8 |] %16
V:3
 x8 | x8 | x8 | x8 | x8 | x8 | x8 | x8 | x8 | z2 A>G A2 z2 | x8 | [EG]2 [=DF]>[DF] [EG]2 z2 | x8 | %13
 x8 | x8 |[M:8/4] x16 |] %16

